X:1
T: Mr. James Grant's Strathspey
C:
R:Strathspey
Q: 128
K:D
M:4/4
L:1/16
|:f2|d3D D3F E3D Ec3|dD3 D3d e3d e2f2|d3A B3F E3D E3F|D3E DA,3 B,D3 D2f2|
d3D D3F E3D Ec3|dD3 D3d e3d e2f2|d3A B3F E3D E3F|D3E DA,3 B,D3 D2f2|
a3f agfe d3f af3|b3a bg3 e3f gb3|a3f agfe fd3 d3B|A3B d3e fd3 d2fg|
a3f agfe d3f af3|b3a bg3 e3f ge3|fa3 ef3 de3 Bd3|A3G F3E F2D2 D2:|
